assets/icons/next.svg

<svg fill="none" height="24" viewBox="0 0 24 24" width="24" xmlns="http://www.w3.org/2000/svg"><path d="m6.0791 22.5c.00035-.3977.15862-.7789.44-1.06l7.672-7.672c.2322-.2321.4164-.5078.5421-.8111.1257-.3034.1904-.6285.1904-.9569 0-.3283-.0647-.6535-.1904-.9568-.1257-.3034-.3099-.579-.5421-.8112l-7.662-7.66698c-.27324-.28291-.42443-.66181-.42101-1.0551.00342-.3933.16117-.769519.43928-1.047631s.65433-.4358654 1.04763-.4392831c.39329-.0034176.7722.1477741 1.0551.4210111l7.662 7.661003c1.0302 1.03226 1.6089 2.43108 1.6089 3.88948s-.5787 2.8573-1.6089 3.8895l-7.672 7.672c-.20948.2096-.47636.3525-.76695.4106-.2906.0581-.59189.0288-.86586-.0842-.27397-.1129-.50834-.3045-.67353-.5506-.16519-.246-.25381-.5354-.25466-.8318z" fill="#000"/></svg>

<svg width="24" height="24" viewBox="0 0 24 24" fill="none" xmlns="http://www.w3.org/2000/svg">
<path d="M6.0791 22.5C6.07945 22.1023 6.23772 21.7211 6.5191 21.44L14.1911 13.768C14.4233 13.5359 14.6075 13.2602 14.7332 12.9569C14.8589 12.6535 14.9236 12.3284 14.9236 12C14.9236 11.6717 14.8589 11.3465 14.7332 11.0432C14.6075 10.7398 14.4233 10.4642 14.1911 10.232L6.5291 2.56502C6.25586 2.28211 6.10467 1.90321 6.10809 1.50992C6.11151 1.11662 6.26926 0.740401 6.54737 0.462289C6.82548 0.184177 7.2017 0.0264236 7.595 0.0230059C7.98829 0.0195883 8.3672 0.17078 8.6501 0.444017L16.3121 8.10502C17.3423 9.13728 17.921 10.5361 17.921 11.9945C17.921 13.4529 17.3423 14.8518 16.3121 15.884L8.6401 23.556C8.43062 23.7656 8.16374 23.9085 7.87315 23.9666C7.58255 24.0247 7.28126 23.9954 7.00729 23.8824C6.73332 23.7695 6.49895 23.5779 6.33376 23.3318C6.16857 23.0858 6.07995 22.7964 6.0791 22.5Z" fill="black"/>
</svg>
